remix/Logos/bilibili-line.svg

<svg viewBox="0 0 24 24" fill="currentColor" xmlns="http://www.w3.org/2000/svg"><path d="M7.17157 2.75737L10.414 5.99948H13.585L16.8284 2.75737C17.219 2.36685 17.8521 2.36685 18.2426 2.75737C18.6332 3.1479 18.6332 3.78106 18.2426 4.17158L16.414 5.99948L18.5 6.00001C20.433 6.00001 22 7.56701 22 9.50001V17.5C22 19.433 20.433 21 18.5 21H5.5C3.567 21 2 19.433 2 17.5V9.50001C2 7.56701 3.567 6.00001 5.5 6.00001L7.585 5.99948L5.75736 4.17158C5.36684 3.78106 5.36684 3.1479 5.75736 2.75737C6.14788 2.36685 6.78105 2.36685 7.17157 2.75737ZM18.5 8.00001H5.5C4.7203 8.00001 4.07955 8.5949 4.00687 9.35555L4 9.50001V17.5C4 18.2797 4.59489 18.9205 5.35554 18.9931L5.5 19H18.5C19.2797 19 19.9204 18.4051 19.9931 17.6445L20 17.5V9.50001C20 8.67158 19.3284 8.00001 18.5 8.00001ZM8 11C8.55228 11 9 11.4477 9 12V14C9 14.5523 8.55228 15 8 15C7.44772 15 7 14.5523 7 14V12C7 11.4477 7.44772 11 8 11ZM16 11C16.5523 11 17 11.4477 17 12V14C17 14.5523 16.5523 15 16 15C15.4477 15 15 14.5523 15 14V12C15 11.4477 15.4477 11 16 11Z"/></svg>

<svg viewBox="0 0 24 24" xmlns="http://www.w3.org/2000/svg"><path fill="none" d="M0 0h24v24H0Z"/><path d="M7.172 2.75l3.242 3.24h3.17l3.24-3.25V2.73c.39-.4 1.02-.4 1.41 0 .39.39.39 1.02 0 1.41L16.4 5.976h2.08v0c1.93 0 3.5 1.56 3.5 3.5v8 0c0 1.93-1.57 3.5-3.5 3.5h-13v0c-1.94 0-3.5-1.57-3.5-3.5v-8 0c0-1.94 1.56-3.5 3.5-3.5H7.56L5.73 4.14v0c-.4-.4-.4-1.03-.001-1.42 .39-.4 1.02-.4 1.415 0ZM18.5 7.993h-13v0c-.78 0-1.42.58-1.5 1.35l-.01.14v8 0c0 .77.58 1.41 1.35 1.49l.14 0h13v0c.77-.01 1.41-.59 1.49-1.36l0-.15v-8 0c0-.83-.68-1.5-1.5-1.5Zm-10.5 3v0c.55 0 1 .44 1 1v2 0c0 .55-.45 1-1 1 -.56 0-1-.45-1-1v-2 0c0-.56.44-1 1-1Zm8 0v0c.55 0 1 .44 1 1v2 0c0 .55-.45 1-1 1 -.56 0-1-.45-1-1v-2 0c0-.56.44-1 1-1Z"/></svg>
